X: 10571
T: JOHNNY COPE -- Variations
R: reel
B: K\"ohler's Violin Repository, v.1, 1885 p.57
F: http://www.archive.org/details/klersviolinrepos01edin
Z: 2011 John Chambers <jc:trillian.mit.edu>
M: C|
L: 1/16
K: Gm
|: vG4 (GABc) .d2.G2 A(GFD) | F4 (FGAB) c2F2 A(GFD) | G4 (GABc) d2G2 BAGF | D2f2 dcBA G4 G,4 |
|: vB4 B2B,2 Bcde f4 | BAGF F2c2 ABcd BAGF | G2B2 A2c2 B2d2 BAGF | D2f2 dcBA G4 G,4 :|
|: vG2G,2 GABc dcBA BGFD | F2C2 FGAf cAfc BAGF | G2(FE) DCB,A, G,A,B,C EDCB, | CDEG FDFA, G,4 G,4 |
|: vg4 g2fg a2g2 agfd | f4 (f3{gfef}g) {fg}a2(gf) f2a2 | g4 (g2{ag}fg) a2f2g2d2 | f2c2 dcBA G4 G,4 :|
|: vG^FGA GABc dedc BABG | (AF)(cF) (dF)(cF) Acfc BAGF | BcBA G^FGD GABc dcdB | cdfg fdcA G4 G,4 :|
|: vgdgb gdgb GBdg bgdB | fcfa fcfa FAcf afcA | dBdf cAcf BGBd AFAc | (3dcB (3cBA (3BAG (3AG^F G4 G,4"^Fine":|

%%sep 2 1 500

